icons/svg/text-bullet-list-square-add.svg

<svg width="24" height="24" viewBox="0 0 24 24" fill="none" xmlns="http://www.w3.org/2000/svg">
<circle cx="7.8772" cy="8.25" r="1" fill="currentColor"/>
<path d="M11.0618 8.25H16.3727" stroke="currentColor" stroke-width="1.5" stroke-linecap="round"/>
<circle cx="7.8772" cy="12" r="1" fill="currentColor"/>
<path d="M11.0619 12H12.3728" stroke="currentColor" stroke-width="1.5" stroke-linecap="round"/>
<circle cx="7.8772" cy="15.75" r="1" fill="currentColor"/>
<path d="M20.25 10.25V7.75C20.25 5.54086 18.4591 3.75 16.25 3.75H7.75C5.54086 3.75 3.75 5.54086 3.75 7.75V16.25C3.75 18.4591 5.54086 20.25 7.75 20.25H10.25" stroke="currentColor" stroke-width="1.5" stroke-linecap="round"/>
<path fill-rule="evenodd" clip-rule="evenodd" d="M17.5 23C20.5376 23 23 20.5376 23 17.5C23 14.4624 20.5376 12 17.5 12C14.4624 12 12 14.4624 12 17.5C12 20.5376 14.4624 23 17.5 23ZM17.5 14.0066C17.7761 14.0066 18 14.2304 18 14.5066V17.0001H20.4934C20.7696 17.0001 20.9934 17.2239 20.9934 17.5001C20.9934 17.7762 20.7696 18.0001 20.4934 18.0001H18V20.4934C18 20.7696 17.7761 20.9934 17.5 20.9934C17.2239 20.9934 17 20.7696 17 20.4934V18.0001H14.5066C14.2304 18.0001 14.0066 17.7762 14.0066 17.5001C14.0066 17.2239 14.2304 17.0001 14.5066 17.0001H17V14.5066C17 14.2304 17.2239 14.0066 17.5 14.0066Z" fill="currentColor"/>
</svg>

<svg xmlns="http://www.w3.org/2000/svg" width="24" height="24" fill="none" viewBox="0 0 24 24"><circle cx="7.877" cy="8.25" r="1" fill="currentColor"/><path stroke="currentColor" stroke-linecap="round" stroke-width="1.5" d="M11.062 8.25h5.31"/><circle cx="7.877" cy="12" r="1" fill="currentColor"/><path stroke="currentColor" stroke-linecap="round" stroke-width="1.5" d="M11.062 12h1.31"/><circle cx="7.877" cy="15.75" r="1" fill="currentColor"/><path stroke="currentColor" stroke-linecap="round" stroke-width="1.5" d="M20.25 10.25v-2.5a4 4 0 0 0-4-4h-8.5a4 4 0 0 0-4 4v8.5a4 4 0 0 0 4 4h2.5"/><path fill="currentColor" fill-rule="evenodd" d="M17.5 23a5.5 5.5 0 1 0 0-11 5.5 5.5 0 0 0 0 11m0-8.993a.5.5 0 0 1 .5.5V17h2.493a.5.5 0 1 1 0 1H18v2.493a.5.5 0 1 1-1 0V18h-2.493a.5.5 0 1 1 0-1H17v-2.493a.5.5 0 0 1 .5-.5" clip-rule="evenodd"/></svg>
